svg/icon/ngc.svg

<svg height="32" viewBox="0 0 32 32" width="32" xmlns="http://www.w3.org/2000/svg" xmlns:xlink="http://www.w3.org/1999/xlink"><defs><linearGradient id="a" x1="50%" x2="50%" y1="0%" y2="100%"><stop offset="0" stop-color="#fff" stop-opacity=".5"/><stop offset="1" stop-opacity=".5"/></linearGradient><circle id="b" cx="16" cy="15" r="15"/><filter id="c" height="111.7%" width="111.7%" x="-5.8%" y="-4.2%"><feOffset dy=".5" in="SourceAlpha" result="shadowOffsetOuter1"/><feGaussianBlur in="shadowOffsetOuter1" result="shadowBlurOuter1" stdDeviation=".5"/><feComposite in="shadowBlurOuter1" in2="SourceAlpha" operator="out" result="shadowBlurOuter1"/><feColorMatrix in="shadowBlurOuter1" values="0 0 0 0 0   0 0 0 0 0   0 0 0 0 0  0 0 0 0.199473505 0"/></filter><path id="d" d="m20.5 15.8417508-6.6960352 9.1582492.246696-7.4410774h-1.5506608l.6343612-6.5319866 7.0837005-.9764309-2.3259912 5.9259259zm-5.4977974 6.4983165v-1.7508417c0-.1301681-.1104495-.2356902-.246696-.2356902s-.246696.1055221-.246696.2356902v1.7508417c0 .1301682.1104495.2356903.246696.2356903s.246696-.1055221.246696-.2356903zm-1.8325991-5.2861952h1.4096917l-.064141 2.6936026c-.0015134.0708221.0268302.1392536.0786585.1899094s.1227918.079285.1969362.0794509h.0119824c.1500316.00003.272525-.1146042.2755947-.2579124l.0648458-3.176431h-1.4096916l.4722467-5.2195286c.0055359-.060403-.0157365-.1202503-.0586278-.1649417s-.1034574-.0701174-.1669229-.0700752h-.0401762c-.1169926.0002081-.2146509.0853457-.2255507.196633zm0-6.5993266 2.6079295-2.1548822c.1409692-2.15488216-1.2687224-2.49158249-1.2687224-2.49158249l.2114537-.80808081c2.3259912.67340067 1.9735683 3.23232323 1.9735683 3.23232323l3.3832599 1.41414142z"/><filter id="e" height="117.5%" width="143.8%" x="-21.9%" y="-6.2%"><feOffset dy=".5" in="SourceAlpha" result="shadowOffsetOuter1"/><feGaussianBlur in="shadowOffsetOuter1" result="shadowBlurOuter1" stdDeviation=".5"/><feColorMatrix in="shadowBlurOuter1" values="0 0 0 0 0   0 0 0 0 0   0 0 0 0 0  0 0 0 0.204257246 0"/></filter></defs><g fill="none" fill-rule="evenodd"><use fill="#000" filter="url(#c)" xlink:href="#b"/><use fill="#f80000" xlink:href="#b"/><use fill="url(#a)" xlink:href="#b"/><circle cx="16" cy="15" r="14.5" stroke="#000" stroke-opacity=".097"/><g fill-rule="nonzero"><use fill="#000" filter="url(#e)" xlink:href="#d"/><use fill="#fff" fill-rule="evenodd" xlink:href="#d"/></g></g></svg>

<svg xmlns="http://www.w3.org/2000/svg" xmlns:xlink="http://www.w3.org/1999/xlink" width="32" height="32" viewBox="0 0 32 32">
  <defs>
    <linearGradient id="ngc-c" x1="50%" x2="50%" y1="0%" y2="100%">
      <stop offset="0%" stop-color="#FFF" stop-opacity=".5"/>
      <stop offset="100%" stop-opacity=".5"/>
    </linearGradient>
    <circle id="ngc-b" cx="16" cy="15" r="15"/>
    <filter id="ngc-a" width="111.7%" height="111.7%" x="-5.8%" y="-4.2%" filterUnits="objectBoundingBox">
      <feOffset dy=".5" in="SourceAlpha" result="shadowOffsetOuter1"/>
      <feGaussianBlur in="shadowOffsetOuter1" result="shadowBlurOuter1" stdDeviation=".5"/>
      <feComposite in="shadowBlurOuter1" in2="SourceAlpha" operator="out" result="shadowBlurOuter1"/>
      <feColorMatrix in="shadowBlurOuter1" values="0 0 0 0 0   0 0 0 0 0   0 0 0 0 0  0 0 0 0.199473505 0"/>
    </filter>
    <path id="ngc-e" d="M20.5,15.8417508 L13.8039648,25 L14.0506608,17.5589226 L12.5,17.5589226 L13.1343612,11.026936 L20.2180617,10.0505051 L17.8920705,15.976431 L20.5,15.8417508 Z M15.0022026,22.3400673 L15.0022026,20.5892256 C15.0022026,20.4590575 14.8917531,20.3535354 14.7555066,20.3535354 C14.6192601,20.3535354 14.5088106,20.4590575 14.5088106,20.5892256 L14.5088106,22.3400673 C14.5088106,22.4702355 14.6192601,22.5757576 14.7555066,22.5757576 C14.8917531,22.5757576 15.0022026,22.4702355 15.0022026,22.3400673 Z M13.1696035,17.0538721 L14.5792952,17.0538721 L14.5151542,19.7474747 C14.5136408,19.8182968 14.5419844,19.8867283 14.5938127,19.9373841 C14.645641,19.9880399 14.7166045,20.0166691 14.7907489,20.016835 L14.8027313,20.016835 C14.9527629,20.016865 15.0752563,19.9022308 15.078326,19.7589226 L15.1431718,16.5824916 L13.7334802,16.5824916 L14.2057269,11.362963 C14.2112628,11.30256 14.1899904,11.2427127 14.1470991,11.1980213 C14.1042078,11.1533299 14.0436417,11.1279039 13.9801762,11.1279461 L13.94,11.1279461 C13.8230074,11.1281542 13.7253491,11.2132918 13.7144493,11.3245791 L13.1696035,17.0538721 Z M13.1696035,10.4545455 L15.777533,8.2996633 C15.9185022,6.14478114 14.5088106,5.80808081 14.5088106,5.80808081 L14.7202643,5 C17.0462555,5.67340067 16.6938326,8.23232323 16.6938326,8.23232323 L20.0770925,9.64646465 L13.1696035,10.4545455 Z"/>
    <filter id="ngc-d" width="143.8%" height="117.5%" x="-21.9%" y="-6.2%" filterUnits="objectBoundingBox">
      <feOffset dy=".5" in="SourceAlpha" result="shadowOffsetOuter1"/>
      <feGaussianBlur in="shadowOffsetOuter1" result="shadowBlurOuter1" stdDeviation=".5"/>
      <feColorMatrix in="shadowBlurOuter1" values="0 0 0 0 0   0 0 0 0 0   0 0 0 0 0  0 0 0 0.204257246 0"/>
    </filter>
  </defs>
  <g fill="none" fill-rule="evenodd">
    <use fill="#000" filter="url(#ngc-a)" xlink:href="#ngc-b"/>
    <use fill="#F80000" xlink:href="#ngc-b"/>
    <use fill="url(#ngc-c)" style="mix-blend-mode:soft-light" xlink:href="#ngc-b"/>
    <circle cx="16" cy="15" r="14.5" stroke="#000" stroke-opacity=".097"/>
    <g fill-rule="nonzero">
      <use fill="#000" filter="url(#ngc-d)" xlink:href="#ngc-e"/>
      <use fill="#FFF" fill-rule="evenodd" xlink:href="#ngc-e"/>
    </g>
  </g>
</svg>
